X:677
T:Dillon's Fancy
R:reel
D:Kevin Crawford: 'D' Flute Album
Z:id:hn-reel-677
M:C|
K:G
DGGD ~G3A|Bdgd egd2|BDGB DGBG|~A2BG AGEG|
DGGD G2DG|(3Bcd gd (3efg d2|(3Bcd ed g2eg|1 d2gd BGGE:|2 d2gd BG~G2||
|:gd~d2 edBd|g2af gfef|gdBd edBG|FGAB cdef|
g2fa gdBd|gbaf gfed|Bded g2eg|1 d2gd BG~G2:|2 d2gd BG~G2||
